X: 2049
T: Polska efter John Johansson
B: [[Notböcker/John Johanssons noter]] [[http://www.sormlandsmusikarkiv.se/noter/johansson_john/john_johansson.html|samling 2]], nr 41 (sida 12) 
N: jämför nr 104 (sida 72) i samma notsamling.
O: Södermanland
R: Polska
Z: Nils L
M: 3/4
L: 1/16
K: A
e2ae cAce a4 | e2fe dcBA f4 | e2ec d2dB c2cA | cBAG ABcd efga |
e2ae cAce a2a2 | e2fe dcBA f2f2 | e2c2 d2B2 c2A2 | cBAG A4 A,4 ::
B4 A2B2 cBAB | c4 A2AB c2BA | [fd]4 B2Bc d2cB | c2cd edcd e4 |
eaga bagf edcB | f2fe f2fe dcBA | GABc Befg a2>d2 | cBAG A4 A,4 :|
(:musicend:)

(:music:)
